X:8519
T:Kevin Crawford's
M:C|
L:1/8
S:J\"orgen Fischer
R:reel
Z:id:hn-reel-767
K:G
c2BA ~G3B|AE~E2 GEDB|cABA ~G3B|1 dBAB BGGB:|2 dBAB BGGE||
|:~D3E ~G3A|AGBd edBd|dBde ~g3e|1 dBAB ~G3E:|2 dBAB ~G3B||
